X:12
T: Vettem majorannát
O: (Udvarhely)
Q: "Tempo guisto"
M:3/8
L:1/4
K:Eb
c/c/A/ | c c/ | B |
c/A/A/ | Bc/ | A |
A/G/F/ | AB/ | c |
A/G/F/ | FG/ | F/ z/ |

